X: 22695
T: Lament For Brendan Breathnach
R: waltz
M: 3/4
K: Gmajor
|:GA|Bd3 ed|B4 AB|AG3 AE|ED D2 BA|
Bd3 ed|B4 GB|A4 AB|A4 GA|
Bd3 gf|eg3 e2|dG G2 AG|EG GD GA|
Bd3 ed|B4 GB|AB B2 BA|AG G2||
|:ef|g4 fe|Be3 dB|AB B2 G2|EG G4|
g3e ge|g4 e2|g2 d3B|A4 GA|
[1Bd3 gf|eg3 e2|dG3 AG|EG GD GA|
Bd3 ed|B4 GB|AB B2 BA|AG G2:|
[2ef|g4 fe|dG3 GB|AB B2 G2|EG GD GA|
Bd3 ed|B4 GB|AB3 BA|AG G2||

